X: 29259
T: New May Moon, The
R: jig
M: 6/8
K: Dmajor
|:A|d2 d d2 A|B2 A A^GA|d2 d e^de|f2 d def|
g2 g f2 f|e2 d cBA|B2 A FGA|B2 A A2:|
|:B/c/|d2 A d2 A|B2 A A2 A|d2 d efg|fge dcd|
gag faf|ef/e/d cBA|BAG FGA|B2 A A2:|

